X:3446
T:La Soufflette (F. Bordois)
O:england
M:3/4
L:1/4
K:G
GBc|d2B/A/|G_f>e|d3|Gd/c/B|\
c2A|1 c/B/Ac|BAG:|2 c/B/AB|G3||
|:gfg|d2B|Gd/c/B|c2A|c/B/Ac|BAG|\
gfg|d2B|Gd/c/B|c2A|c/B/AB|G3:|
